svgs/sharp-solid/head-side-virus.svg

<svg xmlns="http://www.w3.org/2000/svg" viewBox="0 0 512 512"><!--! Font Awesome Pro 6.6.0 by @fontawesome - https://fontawesome.com License - https://fontawesome.com/license (Commercial License) Copyright 2024 Fonticons, Inc. --><path d="M0 224.3C0 100.4 100.4 0 224.3 0L256 0C358.1 0 441.6 79.7 447.7 180.3L505 252l7 8.8 0 11.2 0 16 0 32-32 0-32 0 0 96 0 32-32 0-96 0 0 32 0 32-32 0L96 512l-32 0 0-32 0-98.8C23 339.3 0 283 0 224.3zM314.5 94.9l-11.3 11.3C279.9 129.5 240 113 240 80l0-16-16 0-16 0 0 16c0 33-39.9 49.5-63.2 26.2L133.5 94.9l-11.3 11.3s0 0 0 0l-11.3 11.3 11.3 11.3C145.5 152.1 129 192 96 192l-16 0 0 16 0 16 16 0c33 0 49.5 39.9 26.2 63.2l-11.3 11.3 11.3 11.3s0 0 0 0l11.3 11.3 11.3-11.3C168.1 286.5 208 303 208 336l0 16 16 0 16 0 0-16c0-33 39.9-49.5 63.2-26.2l11.3 11.3 11.3-11.3 11.3-11.3-11.3-11.3C302.5 263.9 319 224 352 224l16 0 0-16 0-16-16 0c-33 0-49.5-39.9-26.2-63.2l11.3-11.3-11.3-11.3L314.5 94.9zM200 160a24 24 0 1 1 0 48 24 24 0 1 1 0-48zm40 80a16 16 0 1 1 32 0 16 16 0 1 1 -32 0z"/></svg>

<svg xmlns="http://www.w3.org/2000/svg" viewBox="0 0 512 512"><!--! Font Awesome Pro 6.4.2 by @fontawesome - https://fontawesome.com License - https://fontawesome.com/license (Commercial License) Copyright 2023 Fonticons, Inc. --><path d="M0 224.3C0 100.4 100.4 0 224.3 0H256C358.1 0 441.6 79.7 447.7 180.3L505 252l7 8.8V272v16 32H480 448v96 32H416 320v32 32H288 96 64V480 381.2C23 339.3 0 283 0 224.3zM314.5 94.9l-11.3 11.3C279.9 129.5 240 113 240 80V64H224 208V80c0 33-39.9 49.5-63.2 26.2L133.5 94.9l-11.3 11.3 0 0-11.3 11.3 11.3 11.3C145.5 152.1 129 192 96 192H80v16 16H96c33 0 49.5 39.9 26.2 63.2l-11.3 11.3 11.3 11.3 0 0 11.3 11.3 11.3-11.3C168.1 286.5 208 303 208 336v16h16 16V336c0-33 39.9-49.5 63.2-26.2l11.3 11.3 11.3-11.3 11.3-11.3-11.3-11.3C302.5 263.9 319 224 352 224h16V208 192H352c-33 0-49.5-39.9-26.2-63.2l11.3-11.3-11.3-11.3L314.5 94.9zM200 160a24 24 0 1 1 0 48 24 24 0 1 1 0-48zm40 80a16 16 0 1 1 32 0 16 16 0 1 1 -32 0z"/></svg>
